svg/part/finger_press_fill.svg

<?xml version="1.0" encoding="UTF-8"?>
<svg width="24px" height="24px" viewBox="0 0 24 24" version="1.1" xmlns="http://www.w3.org/2000/svg" xmlns:xlink="http://www.w3.org/1999/xlink">
    <title>finger_press_fill</title>
    <g id="Icon" stroke="none" stroke-width="1" fill="none" fill-rule="evenodd">
        <g id="Part" transform="translate(-672.000000, -48.000000)" fill-rule="nonzero">
            <g id="finger_press_fill" transform="translate(672.000000, 48.000000)">
                <path d="M24,0 L24,24 L0,24 L0,0 L24,0 Z M12.5934901,23.257841 L12.5819402,23.2595131 L12.5108777,23.2950439 L12.4918791,23.2987469 L12.4918791,23.2987469 L12.4767152,23.2950439 L12.4056548,23.2595131 C12.3958229,23.2563662 12.3870493,23.2590235 12.3821421,23.2649074 L12.3780323,23.275831 L12.360941,23.7031097 L12.3658947,23.7234994 L12.3769048,23.7357139 L12.4804777,23.8096931 L12.4953491,23.8136134 L12.4953491,23.8136134 L12.5071152,23.8096931 L12.6106902,23.7357139 L12.6232938,23.7196733 L12.6232938,23.7196733 L12.6266527,23.7031097 L12.609561,23.275831 C12.6075724,23.2657013 12.6010112,23.2592993 12.5934901,23.257841 L12.5934901,23.257841 Z M12.8583906,23.1452862 L12.8445485,23.1473072 L12.6598443,23.2396597 L12.6498822,23.2499052 L12.6498822,23.2499052 L12.6471943,23.2611114 L12.6650943,23.6906389 L12.6699349,23.7034178 L12.6699349,23.7034178 L12.678386,23.7104931 L12.8793402,23.8032389 C12.8914285,23.8068999 12.9022333,23.8029875 12.9078286,23.7952264 L12.9118235,23.7811639 L12.8776777,23.1665331 C12.8752882,23.1545897 12.8674102,23.1470016 12.8583906,23.1452862 L12.8583906,23.1452862 Z M12.1430473,23.1473072 C12.1332178,23.1423925 12.1221763,23.1452606 12.1156365,23.1525954 L12.1099173,23.1665331 L12.0757714,23.7811639 C12.0751323,23.7926639 12.0828099,23.8018602 12.0926481,23.8045676 L12.108256,23.8032389 L12.3092106,23.7104931 L12.3186497,23.7024347 L12.3186497,23.7024347 L12.3225043,23.6906389 L12.340401,23.2611114 L12.337245,23.2485176 L12.337245,23.2485176 L12.3277531,23.2396597 L12.1430473,23.1473072 Z" id="MingCute"></path>
                <path d="M10.5,6 C11.825472,6 12.9100378,7.03153766 12.9946823,8.33562452 L13,8.5 L13,13.105 L17.4549,13.7111 C19.4067933,13.9344 20.8977252,15.5389958 20.9949519,17.4828447 L21,17.6851 L21,18 C21,18.716 20.9057,19.4114 20.7283,20.074 C20.401595,21.29418 19.2917908,21.934233 18.2295122,21.9951879 L18.0623,22 L8.2361,22 C7.16662235,22 6.18353806,21.431308 5.64791707,20.5170237 L5.55282,20.3416 L3.32921,15.8944 C2.96875,15.1735 3.23578,14.2109 4.07624,13.8664 C5.11856,13.4391 6.10996,13.3595 7.13061,13.8781 C7.35282,13.99105 7.57027688,14.1298188 7.78548234,14.291875 L8.00003,14.4616 L8.00003,8.5 C8.00003,7.11929 9.11932,6 10.5,6 Z M10.5,2 C14.0899,2 17,4.91015 17,8.5 C17,9.11294 16.9149,9.70765 16.7552,10.2722 C16.6049,10.8036 16.0522,11.1126 15.5208,10.9623 C14.9894,10.8119 14.6804,10.2593 14.8307,9.72784 C14.9408,9.33869 15,8.92709 15,8.5 C15,6.01472 12.9853,4 10.5,4 C8.01472,4 6,6.01472 6,8.5 C6,9.23833 6.17705,9.9324 6.49011,10.5448 C6.7415,11.0366 6.54664,11.639 6.05488,11.8904 C5.56312,12.1418 4.96069,11.9469 4.70931,11.4552 C4.25551,10.5675 4,9.56212 4,8.5 C4,4.91015 6.91015,2 10.5,2 Z" id="形状" fill="#09244B"></path>
            </g>
        </g>
    </g>
</svg>

<svg xmlns="http://www.w3.org/2000/svg" width="24" height="24"><g fill="none" fill-rule="nonzero"><path d="M24 0v24H0V0h24ZM12.593 23.258l-.011.002-.071.035-.02.004-.014-.004-.071-.035c-.01-.004-.019-.001-.024.005l-.004.01-.017.428.005.02.01.013.104.074.015.004.012-.004.104-.074.012-.016.004-.017-.017-.427c-.002-.01-.009-.017-.017-.018Zm.265-.113-.013.002-.185.093-.01.01-.003.011.018.43.005.012.008.007.201.093c.012.004.023 0 .029-.008l.004-.014-.034-.614c-.003-.012-.01-.02-.02-.022Zm-.715.002a.023.023 0 0 0-.027.006l-.006.014-.034.614c0 .012.007.02.017.024l.015-.002.201-.093.01-.008.004-.011.017-.43-.003-.012-.01-.01-.184-.092Z"/><path fill="#09244B" d="M10.5 6a2.5 2.5 0 0 1 2.495 2.336L13 8.5v4.605l4.455.606a4 4 0 0 1 3.54 3.772l.005.202V18a8.01 8.01 0 0 1-.272 2.074c-.326 1.22-1.436 1.86-2.498 1.921l-.168.005H8.236a3 3 0 0 1-2.588-1.483l-.095-.175-2.224-4.448c-.36-.72-.093-1.683.747-2.028 1.043-.427 2.034-.506 3.055.012.222.113.44.252.654.414l.215.17V8.5A2.5 2.5 0 0 1 10.5 6Zm0-4a6.5 6.5 0 0 1 6.255 8.272 1 1 0 0 1-1.924-.544 4.5 4.5 0 1 0-8.34.817 1 1 0 0 1-1.782.91A6.5 6.5 0 0 1 10.5 2Z"/></g></svg>
